files/2/96x96/places/folder-ubuntu.svg

<?xml version="1.0" encoding="UTF-8" standalone="no"?>
<svg
   xmlns:dc="http://purl.org/dc/elements/1.1/"
   xmlns:cc="http://creativecommons.org/ns#"
   xmlns:rdf="http://www.w3.org/1999/02/22-rdf-syntax-ns#"
   xmlns:svg="http://www.w3.org/2000/svg"
   xmlns="http://www.w3.org/2000/svg"
   xmlns:sodipodi="http://sodipodi.sourceforge.net/DTD/sodipodi-0.dtd"
   xmlns:inkscape="http://www.inkscape.org/namespaces/inkscape"
   width="96"
   viewBox="0 0 96 96"
   height="96"
   id="svg3111"
   version="1.1"
   inkscape:version="0.48.5 r10040"
   sodipodi:docname="folder-ubuntu.svg">
  <metadata
     id="metadata3129">
    <rdf:RDF>
      <cc:Work
         rdf:about="">
        <dc:format>image/svg+xml</dc:format>
        <dc:type
           rdf:resource="http://purl.org/dc/dcmitype/StillImage" />
      </cc:Work>
    </rdf:RDF>
  </metadata>
  <defs
     id="defs3127" />
  <sodipodi:namedview
     pagecolor="#ffffff"
     bordercolor="#666666"
     borderopacity="1"
     objecttolerance="10"
     gridtolerance="10"
     guidetolerance="10"
     inkscape:pageopacity="0"
     inkscape:pageshadow="2"
     inkscape:window-width="1280"
     inkscape:window-height="998"
     id="namedview3125"
     showgrid="false"
     inkscape:zoom="4.9166667"
     inkscape:cx="24"
     inkscape:cy="24"
     inkscape:window-x="0"
     inkscape:window-y="0"
     inkscape:window-maximized="1"
     inkscape:current-layer="svg3111" />
  <path
     style="font-size:medium;font-style:normal;font-variant:normal;font-weight:normal;font-stretch:normal;text-indent:0;text-align:start;text-decoration:none;line-height:normal;letter-spacing:normal;word-spacing:normal;text-transform:none;direction:ltr;block-progression:tb;writing-mode:lr-tb;text-anchor:start;baseline-shift:baseline;color:#000000;fill:#e9b080;fill-opacity:1;fill-rule:nonzero;stroke:none;stroke-width:1;marker:none;visibility:visible;display:inline;overflow:visible;enable-background:accumulate;font-family:Sans;-inkscape-font-specification:Sans"
     d="m 12.000041,12.000035 c -1.999999,0 -3.9999979,2 -3.9999979,3.999998 l 0,3.999998 -1.9999991,0 c -1.999999,0 -4.0111358,1.898414 -3.999998,3.999999 l 0,55.999972 C 2.0003021,82.241469 4.075571,83.9998 6.3750438,84 L 89.625002,84 C 92,84 94,82.000001 94,80.000002 l 0,-49.999975 c 0,-1.999999 -2,-3.999998 -3.999998,-3.999998 l -3.999998,0 0,-9.999996 c 0,-1.999998 -1.999999,-3.999998 -3.999998,-3.999998 z"
     id="path3770"
     inkscape:connector-curvature="0"
     sodipodi:nodetypes="sscsccccccccsss" />
  <path
     style="line-height:normal;color:#000000;fill:#000000;fill-opacity:0.32156863"
     d="m 31.256599,51.4167 c -1.79894,0 -3.256612,1.437194 -3.256612,3.210863 0,1.772991 1.457672,3.210354 3.256612,3.210354 1.798251,0 3.256095,-1.437363 3.256095,-3.210354 0,-1.773839 -1.457669,-3.210863 -3.256095,-3.210863 z m 23.251654,14.592857 c -1.55766,0.886581 -2.09082,2.849444 -1.191951,4.384544 0.899384,1.535777 2.89004,2.061787 4.447702,1.175205 1.557143,-0.886409 2.090649,-2.849273 1.191436,-4.384882 -0.89904,-1.535099 -2.890043,-2.061276 -4.447187,-1.174867 z M 38.330176,54.627055 c 0,-3.173195 1.599307,-5.975975 4.044992,-7.673119 L 39.994363,43.02193 c -2.849946,1.877346 -4.969849,4.74732 -5.850475,8.10869 1.028632,0.826682 1.685873,2.085541 1.685873,3.496775 0,1.410891 -0.657241,2.66975 -1.686047,3.496264 0.880456,3.361708 3.000532,6.231683 5.850479,8.108858 l 2.380975,-3.932344 C 39.929483,60.60337 38.330176,57.800757 38.330176,54.627055 z m 9.512719,-9.379086 c 4.969676,0 9.046161,3.756894 9.473483,8.547312 l 4.64114,-0.06686 c -0.228376,-3.536818 -1.795327,-6.712896 -4.203494,-9.047191 -1.238076,0.461192 -2.66838,0.391284 -3.904561,-0.312552 -1.23773,-0.704512 -2.014409,-1.892955 -2.227124,-3.182695 -1.203307,-0.328331 -2.469778,-0.507345 -3.779272,-0.507345 -2.252075,0 -4.379724,0.521259 -6.269705,1.444321 l 2.262401,3.99767 c 1.21794,-0.558758 2.575103,-0.872666 4.007132,-0.872666 z m 0,18.758341 c -1.432201,0 -2.789192,-0.313908 -4.007304,-0.872665 l -2.262745,3.998009 c 1.890153,0.922722 4.017972,1.444149 6.270049,1.444149 1.309493,0 2.575963,-0.179019 3.779444,-0.507343 0.212715,-1.289742 0.989563,-2.478183 2.227467,-3.183204 1.236182,-0.703496 2.666488,-0.773404 3.904562,-0.312044 2.407995,-2.334463 3.974948,-5.510541 4.202978,-9.04736 l -4.641141,-0.06686 c -0.426974,4.791096 -4.503634,8.547312 -9.47331,8.547312 z m 6.664843,-20.761928 c 1.557487,0.88692 3.54849,0.36074 4.447356,-1.174359 0.899385,-1.535777 0.366226,-3.498641 -1.191434,-4.385389 -1.557318,-0.886413 -3.548146,-0.360403 -4.447532,1.175374 -0.899039,1.5351 -0.365535,3.498133 1.19161,4.384374 z"
     id="path3123"
     inkscape:connector-curvature="0" />
  <path
     inkscape:connector-curvature="0"
     style="font-size:medium;font-style:normal;font-variant:normal;font-weight:normal;font-stretch:normal;text-indent:0;text-align:start;text-decoration:none;line-height:normal;letter-spacing:normal;word-spacing:normal;text-transform:none;direction:ltr;block-progression:tb;writing-mode:lr-tb;text-anchor:start;baseline-shift:baseline;color:#000000;fill:#000000;fill-opacity:0.32156863;fill-rule:nonzero;stroke:none;stroke-width:1;marker:none;visibility:visible;display:inline;overflow:visible;enable-background:accumulate;font-family:Sans;-inkscape-font-specification:Sans"
     d="m 12.000041,12.000035 c -1.999999,0 -3.9999979,2 -3.9999979,3.999998 l 0,3.999998 -1.9999991,0 c -1.999999,0 -4.0111358,1.898414 -3.999998,3.999999 l 0,55.999972 C 2.0003021,82.241469 4.075571,83.9998 6.3750438,84 L 89.625002,84 C 92,84 94,82.000001 94,80.000002 l 0,-49.999975 c 0,-1.999999 -2,-3.999998 -3.999998,-3.999998 l -3.999998,0 0,-9.999996 c 0,-1.999998 -1.999999,-3.999998 -3.999998,-3.999998 l -69.999965,0 z m -5.999997,9.999996 47.999976,0 c 1.014627,0 1.999999,0.988334 1.999999,1.999999 l 0,3.999998 33.999983,0 C 91.081718,28.000028 92,28.943646 92,30.000027 l 0,49.999975 c 0,1.107509 -0.904228,1.999999 -1.999998,1.999999 l -83.999958,0 c -1.0254515,0 -1.999999,-0.892492 -1.999999,-1.999999 l 0,-55.999972 c 0,-1.086636 0.9580835,-1.999999 1.999999,-1.999999 z"
     id="path3779" />
</svg>

<svg xmlns="http://www.w3.org/2000/svg" xmlns:xlink="http://www.w3.org/1999/xlink" width="96px" height="96px" viewBox="0 0 96 96" version="1.1">
<g id="surface1">
<path style=" stroke:none;fill-rule:nonzero;fill:rgb(91.372549%,69.019608%,50.196078%);fill-opacity:1;" d="M 12 12 C 10 12 8 14 8 16 L 8 20 L 6 20 C 4 20 1.988281 21.898438 2 24 L 2 80 C 2 82.242188 4.074219 84 6.375 84 L 89.625 84 C 92 84 94 82 94 80 L 94 30 C 94 28 92 26 90 26 L 86 26 L 86 16 C 86 14 84 12 82 12 Z M 12 12 "/>
<path style=" stroke:none;fill-rule:nonzero;fill:rgb(0%,0%,0%);fill-opacity:0.321569;" d="M 31.257812 51.417969 C 29.457031 51.417969 28 52.855469 28 54.628906 C 28 56.402344 29.457031 57.839844 31.257812 57.839844 C 33.054688 57.839844 34.511719 56.402344 34.511719 54.628906 C 34.511719 52.855469 33.054688 51.417969 31.257812 51.417969 Z M 54.507812 66.007812 C 52.949219 66.894531 52.417969 68.859375 53.316406 70.394531 C 54.214844 71.929688 56.207031 72.457031 57.765625 71.570312 C 59.320312 70.683594 59.855469 68.71875 58.957031 67.183594 C 58.054688 65.648438 56.066406 65.125 54.507812 66.007812 Z M 38.332031 54.628906 C 38.332031 51.453125 39.929688 48.652344 42.375 46.953125 L 39.996094 43.023438 C 37.144531 44.898438 35.023438 47.769531 34.144531 51.128906 C 35.171875 51.957031 35.828125 53.214844 35.828125 54.628906 C 35.828125 56.039062 35.171875 57.296875 34.144531 58.125 C 35.023438 61.484375 37.144531 64.355469 39.996094 66.234375 L 42.375 62.300781 C 39.929688 60.601562 38.332031 57.800781 38.332031 54.628906 Z M 47.84375 45.246094 C 52.8125 45.246094 56.890625 49.003906 57.316406 53.796875 L 61.957031 53.726562 C 61.730469 50.191406 60.164062 47.015625 57.753906 44.679688 C 56.515625 45.140625 55.085938 45.074219 53.847656 44.367188 C 52.613281 43.664062 51.835938 42.476562 51.621094 41.1875 C 50.417969 40.859375 49.152344 40.679688 47.84375 40.679688 C 45.589844 40.679688 43.464844 41.199219 41.574219 42.121094 L 43.835938 46.121094 C 45.054688 45.5625 46.410156 45.246094 47.84375 45.246094 Z M 47.84375 64.007812 C 46.410156 64.007812 45.054688 63.691406 43.835938 63.132812 L 41.574219 67.132812 C 43.464844 68.054688 45.589844 68.574219 47.84375 68.574219 C 49.152344 68.574219 50.417969 68.398438 51.621094 68.070312 C 51.835938 66.777344 52.613281 65.589844 53.851562 64.886719 C 55.085938 64.183594 56.515625 64.113281 57.753906 64.574219 C 60.164062 62.238281 61.730469 59.0625 61.957031 55.527344 L 57.316406 55.457031 C 56.890625 60.25 52.8125 64.007812 47.84375 64.007812 Z M 54.507812 43.246094 C 56.066406 44.132812 58.054688 43.605469 58.957031 42.070312 C 59.855469 40.535156 59.320312 38.570312 57.765625 37.683594 C 56.207031 36.796875 54.214844 37.324219 53.316406 38.859375 C 52.417969 40.394531 52.949219 42.359375 54.507812 43.246094 Z M 54.507812 43.246094 "/>
<path style=" stroke:none;fill-rule:nonzero;fill:rgb(0%,0%,0%);fill-opacity:0.321569;" d="M 12 12 C 10 12 8 14 8 16 L 8 20 L 6 20 C 4 20 1.988281 21.898438 2 24 L 2 80 C 2 82.242188 4.074219 84 6.375 84 L 89.625 84 C 92 84 94 82 94 80 L 94 30 C 94 28 92 26 90 26 L 86 26 L 86 16 C 86 14 84 12 82 12 Z M 6 22 L 54 22 C 55.015625 22 56 22.988281 56 24 L 56 28 L 90 28 C 91.082031 28 92 28.945312 92 30 L 92 80 C 92 81.109375 91.097656 82 90 82 L 6 82 C 4.972656 82 4 81.109375 4 80 L 4 24 C 4 22.914062 4.957031 22 6 22 Z M 6 22 "/>
</g>
</svg>
